build/images/img/psd.svg

<svg xmlns="http://www.w3.org/2000/svg" width="13" height="17"><path fill-rule="evenodd" fill="#7347C1" d="M11.182 16.999H1.818A1.816 1.816 0 010 15.189V1.808C0 .811.816-.001 1.818-.001h6.863L13 4.281v10.908c0 .999-.816 1.81-1.818 1.81zm.677-12.279l-2.334.007a1.259 1.259 0 01-1.261-1.255v-2.37l-6.446.006a.703.703 0 00-.704.7v13.381c0 .388.316.702.704.702h9.364a.704.704 0 00.704-.702L11.859 4.72zM9.02 8.9c.816.3 1.2.722 1.2 1.371 0 .772-.597 1.427-1.866 1.427-.528 0-1.049-.137-1.31-.28l.213-.86c.281.144.713.287 1.159.287.48 0 .734-.199.734-.499 0-.287-.219-.45-.775-.649-.768-.266-1.269-.689-1.269-1.357 0-.785.659-1.386 1.749-1.386.521 0 .905.11 1.18.233l-.233.839a2.21 2.21 0 00-.968-.218c-.452 0-.672.204-.672.443 0 .293.261.423.858.649zm-4.393 1.105c-.137 0-.26-.007-.356-.02v1.644H3.235V7.091a8.55 8.55 0 011.413-.096c.645 0 1.104.123 1.413.368.295.233.494.615.494 1.066 0 .45-.151.832-.425 1.092-.357.334-.885.484-1.503.484zm.076-2.225c-.213 0-.357.02-.432.041v1.358c.089.021.199.027.35.027.555 0 .898-.279.898-.75 0-.423-.295-.676-.816-.676z"/></svg>

<svg 
 xmlns="http://www.w3.org/2000/svg"
 xmlns:xlink="http://www.w3.org/1999/xlink"
 width="13px" height="17px">
<path fill-rule="evenodd"  fill="rgb(115, 71, 193)"
 d="M11.182,16.999 L1.818,16.999 C0.816,16.999 -0.000,16.188 -0.000,15.189 L-0.000,1.808 C-0.000,0.811 0.816,-0.001 1.818,-0.001 L8.681,-0.001 L13.000,4.281 L13.000,15.189 C13.000,16.188 12.184,16.999 11.182,16.999 ZM11.859,4.720 L9.525,4.727 C8.829,4.727 8.264,4.164 8.264,3.472 L8.264,1.102 L1.818,1.108 C1.430,1.108 1.114,1.422 1.114,1.808 L1.114,15.189 C1.114,15.577 1.430,15.891 1.818,15.891 L11.182,15.891 C11.570,15.891 11.885,15.577 11.886,15.189 L11.859,4.720 ZM9.020,8.900 C9.836,9.200 10.220,9.622 10.220,10.271 C10.220,11.043 9.623,11.698 8.354,11.698 C7.826,11.698 7.305,11.561 7.044,11.418 L7.257,10.558 C7.538,10.702 7.970,10.845 8.416,10.845 C8.896,10.845 9.150,10.646 9.150,10.346 C9.150,10.059 8.931,9.896 8.375,9.697 C7.607,9.431 7.106,9.008 7.106,8.340 C7.106,7.555 7.765,6.954 8.855,6.954 C9.376,6.954 9.760,7.064 10.035,7.187 L9.802,8.026 C9.616,7.937 9.287,7.808 8.834,7.808 C8.382,7.808 8.162,8.012 8.162,8.251 C8.162,8.544 8.423,8.674 9.020,8.900 ZM4.627,10.005 C4.490,10.005 4.367,9.998 4.271,9.985 L4.271,11.629 L3.235,11.629 L3.235,7.091 C3.558,7.036 4.010,6.995 4.648,6.995 C5.293,6.995 5.752,7.118 6.061,7.363 C6.356,7.596 6.555,7.978 6.555,8.429 C6.555,8.879 6.404,9.261 6.130,9.521 C5.773,9.855 5.245,10.005 4.627,10.005 ZM4.703,7.780 C4.490,7.780 4.346,7.800 4.271,7.821 L4.271,9.179 C4.360,9.200 4.470,9.206 4.621,9.206 C5.176,9.206 5.519,8.927 5.519,8.456 C5.519,8.033 5.224,7.780 4.703,7.780 Z"/>
</svg>
